assets/Joker/Flat/joker_flat.svg

<svg width="32" height="32" viewBox="0 0 32 32" fill="none" xmlns="http://www.w3.org/2000/svg">
<path d="M6.5 1C5.11929 1 4 2.11929 4 3.5V28.5C4 29.8807 5.11929 31 6.5 31H25.5C26.8807 31 28 29.8807 28 28.5V3.5C28 2.11929 26.8807 1 25.5 1H6.5Z" fill="#B4ACBC"/>
<path d="M5 3.5C5 2.67157 5.67157 2 6.5 2H25.5C26.3284 2 27 2.67157 27 3.5V28.5C27 29.3284 26.3284 30 25.5 30H6.5C5.67157 30 5 29.3284 5 28.5V3.5Z" fill="#F3EEF8"/>
<path d="M21.7704 21.0922L18.9577 18.5804V18.5522L18.9366 18.5616L17.1919 17L15.9759 19.6717L14.707 17.0188L12.9941 18.5992H12.9729V18.6275L10.2131 21.1768C10.0017 21.3744 9.93822 21.6566 10.0651 21.9106C10.1814 22.1552 10.4563 22.3 10.763 22.3H13L13.0041 24.3377C13.0147 24.6105 13.2145 24.8456 13.5 24.9491C13.7855 25.0526 14.0826 24.9962 14.3047 24.7986L16 23.5L17.6783 24.7986C17.9003 24.9868 18.2175 25.0529 18.503 24.94C18.778 24.8365 19 24.5822 19 24.3094V22.3H21.2628C21.5694 22.2906 21.8338 22.0611 21.9501 21.8071C22.0558 21.5719 21.9924 21.2897 21.7704 21.0922Z" fill="#8D65C5"/>
<path d="M16 22C13.7957 22 12 20.3581 12 18.3427V15H20V18.3427C20 20.368 18.2151 22 16 22Z" fill="#FBB8AB"/>
<path fill-rule="evenodd" clip-rule="evenodd" d="M22.5489 13.9023C22.517 14.0127 22.4999 14.1293 22.4999 14.25C22.4999 14.9404 23.0596 15.5 23.7499 15.5C24.4403 15.5 24.9999 14.9404 24.9999 14.25C24.9999 13.5596 24.4403 13 23.7499 13C23.6686 13 23.5891 13.0078 23.5121 13.0226L22.3494 11.9685C20.0705 9.92116 16.1245 11.3353 16.1245 14.1953V16L19.9986 17L19.9986 14.2692C19.9986 13.4777 21.0061 13.0028 21.7497 13.4355L22.5489 13.9023Z" fill="#26EAFC"/>
<path fill-rule="evenodd" clip-rule="evenodd" d="M9.46773 13.9666C9.48884 14.0576 9.5 14.1525 9.5 14.25C9.5 14.9404 8.94036 15.5 8.25 15.5C7.55964 15.5 7 14.9404 7 14.25C7 13.5596 7.55964 13 8.25 13C8.36358 13 8.47361 13.0151 8.57821 13.0435L9.76577 11.9685C12.048 9.92116 16 11.3353 16 14.1953V16L12 17V14.2692C12 13.4777 11.1231 13.0028 10.3784 13.4355L9.46773 13.9666Z" fill="#F8312F"/>
<path fill-rule="evenodd" clip-rule="evenodd" d="M16.7357 9.74073C17.0475 9.51343 17.2501 9.14537 17.2501 8.72998C17.2501 8.03962 16.6905 7.47998 16.0001 7.47998C15.3098 7.47998 14.7501 8.03962 14.7501 8.72998C14.7501 9.14537 14.9527 9.51343 15.2645 9.74073L13.7432 16H18.2571L16.7357 9.74073Z" fill="#FCD53F"/>
<path d="M20 16.4396C19.3441 15.5944 17.8065 15 16.0108 15C14.1935 15 12.6452 15.613 12 16.4768V18C12.6452 17.1362 14.1935 16.4396 16.0108 16.4396C17.8065 16.4396 19.3441 17.1176 20 17.9628V16.4396Z" fill="#8D65C5"/>
<path d="M16 21.25C16.8272 21.25 17.5 20.6893 17.5 20H14.5C14.5 20.6893 15.1728 21.25 16 21.25Z" fill="#BB1D80"/>
</svg>

<svg xmlns="http://www.w3.org/2000/svg" width="32" height="32" fill="none"><path fill="#B4ACBC" d="M6.5 1A2.5 2.5 0 0 0 4 3.5v25A2.5 2.5 0 0 0 6.5 31h19a2.5 2.5 0 0 0 2.5-2.5v-25A2.5 2.5 0 0 0 25.5 1h-19Z"/><path fill="#F3EEF8" d="M5 3.5A1.5 1.5 0 0 1 6.5 2h19A1.5 1.5 0 0 1 27 3.5v25a1.5 1.5 0 0 1-1.5 1.5h-19A1.5 1.5 0 0 1 5 28.5v-25Z"/><path fill="#8D65C5" d="m21.77 21.092-2.812-2.512v-.028l-.021.01L17.192 17l-1.216 2.672-1.269-2.653-1.713 1.58h-.021v.029l-2.76 2.549c-.211.197-.275.48-.148.734.116.244.391.389.698.389H13l.004 2.038c.01.272.21.508.496.611a.784.784 0 0 0 .805-.15L16 23.5l1.678 1.299c.222.188.54.254.825.141.275-.104.497-.358.497-.63V22.3h2.263c.306-.01.57-.239.687-.493.106-.235.042-.517-.18-.715Z"/><path fill="#FBB8AB" d="M16 22c-2.204 0-4-1.642-4-3.657V15h8v3.343C20 20.368 18.215 22 16 22Z"/><path fill="#26EAFC" fill-rule="evenodd" d="M22.549 13.902a1.25 1.25 0 1 0 .963-.88L22.35 11.97c-2.279-2.048-6.224-.634-6.224 2.226V16l3.874 1v-2.73c0-.792 1.007-1.267 1.75-.835l.8.467Z" clip-rule="evenodd"/><path fill="#F8312F" fill-rule="evenodd" d="M9.468 13.967A1.253 1.253 0 0 1 8.25 15.5a1.25 1.25 0 1 1 .328-2.457l1.188-1.074C12.048 9.92 16 11.335 16 14.195V16l-4 1v-2.73c0-.792-.877-1.267-1.622-.835l-.91.532Z" clip-rule="evenodd"/><path fill="#FCD53F" fill-rule="evenodd" d="M16.736 9.74a1.25 1.25 0 1 0-1.471 0L13.742 16h4.514l-1.521-6.26Z" clip-rule="evenodd"/><path fill="#8D65C5" d="M20 16.44c-.656-.846-2.194-1.44-3.99-1.44-1.817 0-3.365.613-4.01 1.477V18c.645-.864 2.194-1.56 4.01-1.56 1.796 0 3.334.678 3.99 1.523V16.44Z"/><path fill="#BB1D80" d="M16 21.25c.827 0 1.5-.56 1.5-1.25h-3c0 .69.673 1.25 1.5 1.25Z"/></svg>
